src/assets/duotone/Maximize1.svg

<svg width="24" height="24" viewBox="0 0 24 24"  xmlns="http://www.w3.org/2000/svg">
<path opacity="0.4" d="M16.48 2H8.52C5.07 2 3 4.06 3 7.52V15.47C3 18.94 5.07 21 8.52 21H16.47C19.93 21 21.99 18.94 21.99 15.48V7.52C22 4.06 19.93 2 16.48 2Z" />
<path d="M11 16.15V18.85C11 21.1 10.1 22 7.85 22H5.15C2.9 22 2 21.1 2 18.85V16.15C2 13.9 2.9 13 5.15 13H7.85C10.1 13 11 13.9 11 16.15Z" />
<path d="M18.7499 5.95C18.7499 5.86 18.7299 5.78 18.6999 5.69C18.6999 5.68 18.6899 5.67 18.6899 5.67C18.6599 5.6 18.6099 5.53 18.5599 5.48C18.5399 5.46 18.5199 5.44 18.4999 5.43C18.4499 5.39 18.3999 5.35 18.3499 5.33C18.3299 5.32 18.2999 5.31 18.2799 5.3C18.1999 5.27 18.1099 5.25 18.0199 5.25H13.9999C13.5899 5.25 13.2499 5.59 13.2499 6C13.2499 6.41 13.5799 6.72 13.9999 6.72H16.2099L12.4699 10.47C12.1799 10.76 12.1799 11.24 12.4699 11.53C12.6199 11.68 12.8099 11.75 12.9999 11.75C13.1899 11.75 13.3799 11.68 13.5299 11.53L17.2599 7.79V9.99C17.2599 10.4 17.5999 10.74 18.0099 10.74C18.4199 10.74 18.7599 10.4 18.7599 9.99V5.97C18.7599 5.96 18.7599 5.96 18.7499 5.95Z" />
</svg>

<?xml version="1.0" encoding="UTF-8"?>
<svg width="24" height="24" viewBox="0 0 24 24" xmlns="http://www.w3.org/2000/svg">
 <path d="M16.48 2H8.52C5.07 2 3 4.06 3 7.52V15.47C3 18.94 5.07 21 8.52 21H16.47C19.93 21 21.99 18.94 21.99 15.48V7.52C22 4.06 19.93 2 16.48 2Z" opacity=".4"/>
 <path d="M11 16.15V18.85C11 21.1 10.1 22 7.85 22H5.15C2.9 22 2 21.1 2 18.85V16.15C2 13.9 2.9 13 5.15 13H7.85C10.1 13 11 13.9 11 16.15Z"/>
 <path d="m18.75 5.95c0-0.09-0.02-0.17-0.05-0.26 0-0.01-0.01-0.02-0.01-0.02-0.03-0.07-0.08-0.14-0.13-0.19-0.02-0.02-0.04-0.04-0.06-0.05-0.05-0.04-0.1-0.08-0.15-0.1-0.02-0.01-0.05-0.02-0.07-0.03-0.08-0.03-0.17-0.05-0.26-0.05h-4.02c-0.41 0-0.75 0.34-0.75 0.75s0.33 0.72 0.75 0.72h2.21l-3.74 3.75c-0.29 0.29-0.29 0.77 0 1.06 0.15 0.15 0.34 0.22 0.53 0.22s0.38-0.07 0.53-0.22l3.73-3.74v2.2c0 0.41 0.34 0.75 0.75 0.75s0.75-0.34 0.75-0.75v-4.02c0-0.01 0-0.01-0.01-0.02z"/>
</svg>
